X:137
T:Rotha's Lament
T:Cumha Rotha
R:Slow Air
S:Simon Fraser Collection
N:No.146
O:Scottish
M:3/4
L:1/8
Q:1/4=200
K:E_
(GF)|E2z2z2|c4 (BG)|[G,3E3] FGE|C4 B,2|E2z2z2|c3d e2|G3A F2|[G,4E4G4]:|
(3Bcd)|e3 fef|d3 ede|c3 dcd|B3 cdB|e3 fge|d3 efd|c3 (d/e/ f/e/d/c/)|
c4 [EB] (=B/c/8G/8A/8F/8)|E2z2z2|c4BG|[G,3E3] FGE|C4B,2|
[B,2E2]z2z2|c3de2|G3A F2|[G,4E4G4]||

